X:1137
T:Irish Girl., The
C:McFadden.
B:O'Neill's Music of Ireland
N:O'Neill's - 1137
Z:Transcribed by Stephen Foy (shf@access.digex.net)
Z:Corrected by John Chambers
Z:abc 1.6
M:9/8
R:slipjig
K:A
c2 A AEA AEA|cBc Ace dcB|Tc2 A AEA AEA|BAB dge dBG :|
cde efd e2 d|cde efd ged|cde efd efg|agf agfe dcB|
cde efd e2 d|cde egd ged|cde efd efg|agf agfe ded||
